(Generated with: DXF2GCODE, Version: Py3.6.2 PyQt5.9, Date: $Date: Mon Sep 25 13:57:11 2017 +0200 $)
(Created from file: C:/Users/roshe/OneDrive/LOB stuff/Maker Faire 2018/Github/Maker_Faire_2018/Software/DXF FILES/Circle test.dxf)
(Output format description: G-CODE for LinuxCNC)
(Time: Sun Jul 29 15:34:46 2018)
G21 (Units in millimeters)
G90 (Absolute programming)
G64 (Default cutting) G17 (XY plane) G40 (Cancel radius comp.) G49 (Cancel length comp.)
G0 Z  15.000 

(*** LAYER: Layer_1 ***)
T1 M6
S6000

(* SHAPE Nr: 0 *)
G0 X  15.003 Y  20.183
M3 M8
G0 Z   3.000 
F150
G1 Z  -1.500
F400
G2 X   4.222 Y  38.865 I  41.731 J  36.534
G2 X   1.509 Y  51.627 I  52.383 J  17.808
G2 X   1.277 Y  56.693 I  55.314 J   5.066
G2 X   1.510 Y  61.770 I  55.545 J  -0.000
G2 X   4.230 Y  74.542 I  55.095 J  -5.057
G2 X  15.018 Y  93.220 I  52.505 J -17.873
G2 X  24.713 Y 101.951 I  41.613 J -36.461
G2 X  28.985 Y 104.684 I  32.044 J -45.370
G2 X  33.498 Y 107.022 I  27.773 J -48.103
G2 X  45.919 Y 111.052 I  23.168 J -50.243
G2 X  67.489 Y 111.048 I  10.774 J -54.407
G2 X  79.898 Y 107.017 I -10.770 J -54.269
G2 X  84.401 Y 104.684 I -23.270 J -50.436
G2 X  88.681 Y 101.944 I -27.773 J -48.103
G2 X  98.382 Y  93.203 I -31.927 J -45.185
G2 X 109.164 Y  74.521 I -41.731 J -36.534
G2 X 111.877 Y  61.759 I -52.383 J -17.808
G2 X 112.109 Y  56.693 I -55.314 J  -5.066
G2 X 111.876 Y  51.616 I -55.545 J   0.000
G2 X 109.156 Y  38.844 I -55.095 J   5.057
G2 X  98.367 Y  20.166 I -52.505 J  17.873
G2 X  88.672 Y  11.435 I -41.613 J  36.461
G2 X  84.401 Y   8.702 I -32.044 J  45.370
G2 X  79.888 Y   6.364 I -27.773 J  48.103
G2 X  67.467 Y   2.334 I -23.168 J  50.243
G2 X  45.897 Y   2.338 I -10.774 J  54.407
G2 X  33.488 Y   6.369 I  10.770 J  54.269
G2 X  28.985 Y   8.702 I  23.270 J  50.436
G2 X  24.704 Y  11.442 I  27.773 J  48.103
G2 X  15.003 Y  20.183 I  31.927 J  45.185
F150
G1 Z  -3.000
F400
G2 X   4.222 Y  38.865 I  41.731 J  36.534
G2 X   1.509 Y  51.627 I  52.383 J  17.808
G2 X   1.277 Y  56.693 I  55.314 J   5.066
G2 X   1.510 Y  61.770 I  55.545 J  -0.000
G2 X   4.230 Y  74.542 I  55.095 J  -5.057
G2 X  15.018 Y  93.220 I  52.505 J -17.873
G2 X  24.713 Y 101.951 I  41.613 J -36.461
G2 X  28.985 Y 104.684 I  32.044 J -45.370
G2 X  33.498 Y 107.022 I  27.773 J -48.103
G2 X  45.919 Y 111.052 I  23.168 J -50.243
G2 X  67.489 Y 111.048 I  10.774 J -54.407
G2 X  79.898 Y 107.017 I -10.770 J -54.269
G2 X  84.401 Y 104.684 I -23.270 J -50.436
G2 X  88.681 Y 101.944 I -27.773 J -48.103
G2 X  98.382 Y  93.203 I -31.927 J -45.185
G2 X 109.164 Y  74.521 I -41.731 J -36.534
G2 X 111.877 Y  61.759 I -52.383 J -17.808
G2 X 112.109 Y  56.693 I -55.314 J  -5.066
G2 X 111.876 Y  51.616 I -55.545 J   0.000
G2 X 109.156 Y  38.844 I -55.095 J   5.057
G2 X  98.367 Y  20.166 I -52.505 J  17.873
G2 X  88.672 Y  11.435 I -41.613 J  36.461
G2 X  84.401 Y   8.702 I -32.044 J  45.370
G2 X  79.888 Y   6.364 I -27.773 J  48.103
G2 X  67.467 Y   2.334 I -23.168 J  50.243
G2 X  45.897 Y   2.338 I -10.774 J  54.407
G2 X  33.488 Y   6.369 I  10.770 J  54.269
G2 X  28.985 Y   8.702 I  23.270 J  50.436
G2 X  24.704 Y  11.442 I  27.773 J  48.103
G2 X  15.003 Y  20.183 I  31.927 J  45.185
F150
G1 Z   3.000
G0 Z  15.000 
M9 M5
G0 X   0.000 Y   0.000
M2 (Program end)